source/img/icon-phone.svg

<svg width="26" height="26" viewBox="0 0 26 26" fill="none" xmlns="http://www.w3.org/2000/svg">
<path d="M5.45616 7.74199C5.37161 6.54391 5.63734 5.36374 6.34096 4.41452C6.95096 3.554 7.74517 3.08404 8.70245 2.8094C9.50874 2.57018 10.0372 2.86329 10.2697 3.75972C10.6019 5.09991 11.076 6.44018 11.2482 7.85129C11.3025 8.47252 10.9009 9.35089 10.466 9.80328C9.37589 10.8766 9.60238 11.6576 10.4298 13.282C10.6865 13.8057 11.0942 14.7111 11.8884 15.9096C12.7158 17.1169 13.1537 17.7649 14.2167 17.2152C15.3974 16.6212 16.2581 17.0032 17.1489 17.9621C17.7529 18.6546 18.4172 19.2495 19.0212 19.942C19.8939 20.9718 19.8547 21.6818 19.1722 22.4091C17.9431 23.7486 15.9138 24.1913 14.4039 23.2943C13.5705 22.8058 12.74 22.1664 12.0787 21.4206C9.16453 18.1002 7.06272 14.2388 5.79741 9.88089C5.59508 9.14421 5.50146 8.39872 5.45616 7.74199Z" stroke="#0AD9C6" stroke-width="2"/>
</svg>

<svg width="26" height="26" fill="none" xmlns="http://www.w3.org/2000/svg"><path d="M5.456 7.742c-.084-1.198.181-2.378.885-3.327.61-.861 1.404-1.331 2.361-1.606.807-.239 1.335.054 1.568.95.332 1.34.806 2.681.978 4.092.055.622-.347 1.5-.782 1.952-1.09 1.074-.864 1.855-.036 3.479.257.524.664 1.43 1.458 2.628.828 1.207 1.266 1.855 2.329 1.305 1.18-.594 2.041-.212 2.932.747.604.693 1.268 1.288 1.872 1.98.873 1.03.834 1.74.151 2.467-1.229 1.34-3.258 1.782-4.768.885-.834-.488-1.664-1.128-2.325-1.873-2.914-3.32-5.016-7.182-6.282-11.54a10.989 10.989 0 01-.34-2.139z"/></svg>
